src/app/assets/images/icons/python.icon.svg

<?xml version="1.0" encoding="UTF-8" standalone="no"?>
<svg xmlns="http://www.w3.org/2000/svg" viewBox="0 0 110.4211 109.8461" id="svg2169">
  <defs id="defs2171">
    <linearGradient id="linearGradient11307" gradientUnits="userSpaceOnUse" y2="168.1012" x2="147.77737" y1="111.92053" x1="89.136749">
      <stop id="stop11303" offset="0" stop-color="#ffe052"/>
      <stop id="stop11305" offset="1" stop-color="#ffc331"/>
    </linearGradient>
    <linearGradient id="linearGradient9521" gradientUnits="userSpaceOnUse" y2="131.85291" x2="110.14919" y1="77.070274" x1="55.549179">
      <stop id="stop9517" offset="0" stop-color="#387eb8"/>
      <stop id="stop9519" offset="1" stop-color="#366994"/>
    </linearGradient>
  </defs>
  <metadata id="metadata2174"/>
  <g id="layer1">
    <g id="g1894">
      <path d="M54.81249999999994 0C26.780768000000023 0.0000019999999949504854 28.53125 12.15625 28.53125 12.15625L28.5625 24.75 55.31249999999994 24.75 55.31249999999994 28.53125 17.9375 28.53125C17.9375 28.53125 0 26.496973999999966 0 54.78125 -0.0000019999999949504854 83.06551999999999 15.65625 82.0625 15.65625 82.0625L25 82.0625 25 68.9375C25 68.9375 24.496348000000012 53.28125 40.40624999999994 53.28125 56.31615000000005 53.28125 66.93749999999994 53.28125 66.93749999999994 53.28125 66.93749999999994 53.28125 81.84374999999994 53.52221000000003 81.84374999999994 38.875 81.84374999999994 24.227794000000017 81.84374999999994 14.65625 81.84374999999994 14.65625 81.84374999999994 14.656248000000005 84.10692999999998 0 54.81249999999994 0zM40.06249999999994 8.46875C42.72392899999994 8.468748000000005 44.87499999999994 10.619821000000002 44.87499999999994 13.28125 44.87500199999994 15.942678999999998 42.72392899999994 18.09375 40.06249999999994 18.09375 37.401071 18.093751999999995 35.25 15.942678999999998 35.25 13.28125 35.249998000000005 10.619821000000002 37.401071 8.46875 40.06249999999994 8.46875z" id="path8615" fill="url(#linearGradient9521)"/>
      <path id="path8620" d="M55.60859999999997 109.84610000000004C83.64033999999998 109.84610000000004 81.88984999999997 97.68985000000004 81.88984999999997 97.68985000000004L81.85859999999997 85.09610000000004 55.10859999999997 85.09610000000004 55.10859999999997 81.31485000000004 92.48359999999997 81.31485000000004C92.48359999999997 81.31485000000004 110.42109999999997 83.34912000000003 110.42109999999997 55.064840000000004 110.42110999999994 26.780573000000004 94.76484999999997 27.783592999999996 94.76484999999997 27.783592999999996L85.42109999999997 27.783592999999996 85.42109999999997 40.908590000000004C85.42109999999997 40.908590000000004 85.92476000000005 56.564840000000004 70.01484999999997 56.564840000000004 54.10494799999998 56.564840000000004 43.48359799999997 56.564840000000004 43.48359799999997 56.564840000000004 43.48359799999997 56.564840000000004 28.577347999999972 56.323879999999974 28.577347999999972 70.97110000000004 28.577347999999972 85.61830000000003 28.577347999999972 95.18985000000004 28.577347999999972 95.18985000000004 28.577347999999972 95.18985000000004 26.314167999999995 109.84610000000004 55.60859999999997 109.84610000000004zM70.35859999999997 101.37735000000004C67.69716999999997 101.37735000000004 65.54609999999997 99.22628000000003 65.54609999999997 96.56485000000004 65.54609999999997 93.90342000000004 67.69716999999997 91.75235000000004 70.35859999999997 91.75235000000004 73.02002999999996 91.75235000000004 75.17109999999997 93.90342000000004 75.17109999999997 96.56485000000004 75.17110999999994 99.22628000000003 73.02002999999996 101.37735000000004 70.35859999999997 101.37735000000004z" fill="url(#linearGradient11307)"/>
    </g>
  </g>
</svg>

<?xml version="1.0" encoding="UTF-8"?>
<svg xmlns="http://www.w3.org/2000/svg" viewBox="0 0 110.4211 109.8461">
  <defs>
    <linearGradient id="a" x1="55.54918" x2="110.14919" y1="77.07027" y2="131.85291" gradientUnits="userSpaceOnUse">
      <stop offset="0" stop-color="#387eb8"/>
      <stop offset="1" stop-color="#366994"/>
    </linearGradient>
    <linearGradient id="b" x1="89.13675" x2="147.77737" y1="111.92053" y2="168.1012" gradientUnits="userSpaceOnUse">
      <stop offset="0" stop-color="#ffe052"/>
      <stop offset="1" stop-color="#ffc331"/>
    </linearGradient>
  </defs>
  <path fill="url(#a)" d="M54.8125 0C26.78077 0 28.53125 12.15625 28.53125 12.15625L28.5625 24.75h26.75v3.78125h-37.375S0 26.49697 0 54.78125C0 83.06552 15.65625 82.0625 15.65625 82.0625H25v-13.125s-.50365-15.65625 15.40625-15.65625H66.9375s14.90625.24096 14.90625-14.40625V14.65625S84.10693 0 54.8125 0zm-14.75 8.46875c2.66143 0 4.8125 2.15107 4.8125 4.8125s-2.15107 4.8125-4.8125 4.8125-4.8125-2.15107-4.8125-4.8125 2.15107-4.8125 4.8125-4.8125z"/>
  <path fill="url(#b)" d="M55.6086 109.8461c28.03174 0 26.28125-12.15625 26.28125-12.15625L81.8586 85.0961h-26.75v-3.78125h37.375s17.9375 2.03427 17.9375-26.25c0-28.28428-15.65625-27.28126-15.65625-27.28126H85.4211v13.125s.50366 15.65624-15.40625 15.65624H43.4836s-14.90625-.24096-14.90625 14.40626v24.21875S26.31417 109.8461 55.6086 109.8461zm14.75-8.46875c-2.66143 0-4.8125-2.15107-4.8125-4.8125s2.15107-4.8125 4.8125-4.8125 4.8125 2.15107 4.8125 4.8125-2.15107 4.8125-4.8125 4.8125z"/>
</svg>
